!!!OTL: Wiedersehen an der Bahre 'Nun adje, Schatz, und ich muss fort,
!!!ARE: Europa, Mitteleuropa, Deutschland / France, Lothringen
!!!YOR: 3, S. 86
!!    ????
!!!SCT: Q0056P
!!!YEM: Copyright 1995, estate of Helmut Schaffrath.
**kern
*ICvox
*Ivox
*M6/4
*k[b-e-]
*g:
{4g
2d
4g
=1
2b-
4a
2g
4fn
=2
2g}
{4fn
2b-
4cc
=3
2dd
4ffn
4dd
4b-
4cc
=4
2dd}
{4dd
2ffn
4dd
=5
4ee-
4dd
4cc
2dd
4cc
=6
2b-}
{4dd
2dd
4cc
=7
4cc
4b-
4a
2g
4fn
=8
2g}
==
!!!AGN: Ballade, Abschied, Enttaeuschung, Tod, Selbstmord
!!!ONB: ESAC (Essen Associative Code) Database: BALLADE
!!!AMT: compound duple
!!!AIN: vox
!!!EED: Helmut Schaffrath
!!!EEV: 1.0
*-
